polaris-icons/icons/new-icons/SocialPostMajor.svg

<svg width="20" height="20" viewBox="0 0 20 20" fill="none" xmlns="http://www.w3.org/2000/svg">
<path d="M14.25 2.5C14.6642 2.5 15 2.83579 15 3.25V4.5C15 4.91421 14.6642 5.25 14.25 5.25C13.8358 5.25 13.5 4.91421 13.5 4.5V3.25C13.5 2.83579 13.8358 2.5 14.25 2.5Z" fill="#4A4A4A"/>
<path d="M16.7803 5.53033L17.7803 4.53033C18.0732 4.23744 18.0732 3.76256 17.7803 3.46967C17.4874 3.17678 17.0126 3.17678 16.7197 3.46967L15.7197 4.46967C15.4268 4.76256 15.4268 5.23744 15.7197 5.53033C16.0126 5.82322 16.4874 5.82322 16.7803 5.53033Z" fill="#4A4A4A"/>
<path d="M4.5 8.75C4.5 6.95507 5.95507 5.5 7.75 5.5H11.75C12.1642 5.5 12.5 5.16421 12.5 4.75C12.5 4.33579 12.1642 4 11.75 4H7.75C5.12665 4 3 6.12665 3 8.75V9.5C3 11.5997 4.36171 13.38 6.25 14.0081V16C6.25 16.2832 6.40957 16.5423 6.66252 16.6698C6.91547 16.7972 7.21864 16.7713 7.44628 16.6028L10.6241 14.25H12.25C14.8734 14.25 17 12.1234 17 9.5C17 9.08579 16.6642 8.75 16.25 8.75C15.8358 8.75 15.5 9.08579 15.5 9.5C15.5 11.2949 14.0449 12.75 12.25 12.75H10.3766C10.2159 12.75 10.0595 12.8016 9.93034 12.8972L7.75 14.5115V13.4298C7.75 13.0695 7.49378 12.7601 7.13978 12.6929C5.63655 12.4078 4.5 11.0858 4.5 9.5V8.75Z" fill="#4A4A4A"/>
<path d="M6.75 7.25C6.33579 7.25 6 7.58579 6 8C6 8.41421 6.33579 8.75 6.75 8.75H12.25C12.6642 8.75 13 8.41421 13 8C13 7.58579 12.6642 7.25 12.25 7.25H6.75Z" fill="#4A4A4A"/>
<path d="M6 10.25C6 9.83579 6.33579 9.5 6.75 9.5H10.25C10.6642 9.5 11 9.83579 11 10.25C11 10.6642 10.6642 11 10.25 11H6.75C6.33579 11 6 10.6642 6 10.25Z" fill="#4A4A4A"/>
<path d="M18.25 7.75C18.6642 7.75 19 7.41421 19 7C19 6.58579 18.6642 6.25 18.25 6.25H17C16.5858 6.25 16.25 6.58579 16.25 7C16.25 7.41421 16.5858 7.75 17 7.75H18.25Z" fill="#4A4A4A"/>
</svg>

<svg viewBox="0 0 20 20" xmlns="http://www.w3.org/2000/svg"><path d="M14.25 2.5a.75.75 0 0 1 .75.75v1.25a.75.75 0 0 1-1.5 0v-1.25a.75.75 0 0 1 .75-.75Z" fill="#5C5F62"/><path d="m16.78 5.53 1-1a.75.75 0 0 0-1.06-1.06l-1 1a.75.75 0 0 0 1.06 1.06Z" fill="#5C5F62"/><path d="M4.5 8.75a3.25 3.25 0 0 1 3.25-3.25h4a.75.75 0 0 0 0-1.5h-4a4.75 4.75 0 0 0-4.75 4.75v.75c0 2.1 1.362 3.88 3.25 4.508v1.992a.75.75 0 0 0 1.196.603l3.178-2.353h1.626a4.75 4.75 0 0 0 4.75-4.75.75.75 0 0 0-1.5 0 3.25 3.25 0 0 1-3.25 3.25h-1.873a.75.75 0 0 0-.447.147l-2.18 1.614v-1.081a.75.75 0 0 0-.61-.737 3.251 3.251 0 0 1-2.64-3.193v-.75Z" fill="#5C5F62"/><path d="M6.75 7.25a.75.75 0 0 0 0 1.5h5.5a.75.75 0 0 0 0-1.5h-5.5Z" fill="#5C5F62"/><path d="M6 10.25a.75.75 0 0 1 .75-.75h3.5a.75.75 0 0 1 0 1.5h-3.5a.75.75 0 0 1-.75-.75Z" fill="#5C5F62"/><path d="M18.25 7.75a.75.75 0 0 0 0-1.5h-1.25a.75.75 0 0 0 0 1.5h1.25Z" fill="#5C5F62"/></svg>
